X:1
T:Stafford's reel
M:4/4
L:1/8
R:reel
K:D
BE~E2 BEGB|ADDD DEFA|BEEE B2 Bd|1~f2ed e2dA:|2~f2ed e2ee|
|:gebe geba|1fdad fddf:|2fgaf gfef|
|gebe geba|fdad fddg|fbba faaf|gfed e2dA|]

